X: 1
T: Hindley Steel
M: 4/4
L: 1/8
R: hornpipe
K: Gmaj
|: (3DEF | 
G>Bd>B c>eg>e | d>BG>B A>FD>F | G>BA>c B>Gc>B | A>^GA>B A2 (3DEF |
G>B (3dcB c2 (3gfe | d>BG>B A>F D2 | G2 (3cBA B2 (3edc | B2 A2 G2  :|
|: B>c | 
(3dcB d>g e>gc>g | d>gB>g e>gc>g | d>g (3fed c2 (3BAG | (3FGA D>d A2 (3cBA |
G>Bd>B c>e g2 | d>B (3GAB A>FD>F | G>BA>c B>ed>c | B2 (3AGF G2 :|
